src/share.svg

<?xml version="1.0" encoding="utf-8"?>
<!-- Generated by IcoMoon.io -->
<!DOCTYPE svg PUBLIC "-//W3C//DTD SVG 1.1//EN" "http://www.w3.org/Graphics/SVG/1.1/DTD/svg11.dtd">
<svg version="1.1" xmlns="http://www.w3.org/2000/svg" xmlns:xlink="http://www.w3.org/1999/xlink" width="512" height="512" viewBox="0 0 512 512">
<path fill="#000000" d="M352 377.9h-249.6v-179.7h57.5c0 0 14.1-19.7 42.7-38.2h-119.4c-10.6 0-19.2 8.5-19.2 19.1v217.9c0 10.5 8.6 19.1 19.2 19.1h288c10.6 0 19.2-8.5 19.2-19.1v-109l-38.4 31.4v58.5zM320 224v63.9l128-95.5-128-96.4v59.7c-154.8 0-160 164.3-160 164.3 43.8-71.5 76-96 160-96z"></path>
</svg>

<?xml version="1.0" encoding="utf-8"?>
<!-- Generator: Adobe Illustrator 16.2.1, SVG Export Plug-In . SVG Version: 6.00 Build 0)  -->
<!DOCTYPE svg PUBLIC "-//W3C//DTD SVG 1.1//EN" "http://www.w3.org/Graphics/SVG/1.1/DTD/svg11.dtd">
<svg version="1.1" id="Layer_1" xmlns="http://www.w3.org/2000/svg" xmlns:xlink="http://www.w3.org/1999/xlink" x="0px" y="0px"
	 width="512px" height="512px" viewBox="0 0 512 512" style="enable-background:new 0 0 512 512;" xml:space="preserve">
<g>
	<path d="M352,377.9H102.4V198.2h57.5c0,0,14.1-19.7,42.7-38.2H83.2c-10.6,0-19.2,8.5-19.2,19.1v217.9c0,10.5,8.6,19.1,19.2,19.1
		h288c10.6,0,19.2-8.5,19.2-19.1V288L352,319.4V377.9z M320,224v63.9l128-95.5L320,96v59.7C165.2,155.7,160,320,160,320
		C203.8,248.5,236,224,320,224z"/>
</g>
</svg>
